X:1
T:Title
%%score ( 1 2 ) 3
L:1/8
Q:1/4=97
M:4/4
K:Bb
V:1 treble nm="Grand Piano, Soprano"
V:2 treble 
V:3 treble nm="Choir Pad, Will You Trust This Friend"
V:1
 [FB]3 [FB] [DG][DF][FB][Fc] | [Bd]4 [FB]4 | [Bd]3 [Ac] B[FB][FA][FB] | [Ac]6 z2 | %4
w: By~George~W.~Bacon * * * * *||||
 [FB]3 [FB] [DG][DF][FB][Fc] | [Bd]4 [FB]4 | [Bf]3 [Bd] [Ac][GB][Ac][Fc] | [FB]6 z2 | %8
w: ||||
 [DF]3 [_D=E] [=DF][_EG][FB][Fc] | d4 c4 | [Ac]3 [_A=B] [=Ac][_Bd][c=e][Bc] | f4 z4 | %12
w: ||||
 [Bd]3 [Bd] [B_d][B=d][Be][B_d] | [Bd]4 [FB]4 | [Bf]3 [Bd] [Ac][GB][Ac][Fc] | [FB]8 |] %16
w: ||||
V:2
 x8 | x8 | x8 | x8 | x8 | x8 | x8 | x8 | x8 | BBBB G2 B2 | x8 | ABcd [ce]4 | x8 | x8 | x8 | x8 |] %16
V:3
 [B,D]3 [B,D] [B,D][B,D][B,D][B,E] | [B,F]4 [B,D]4 | [B,F]3 [CF] [DF][DF][CF][DF] | F6 z2 | %4
 [B,D]3 [B,D] [B,D][B,D][B,D][B,E] | [B,F]4 [B,D]4 | [DF]3 [B,F][K:bass] [F,E][G,D][F,E][F,E] | %7
 [B,D]6 z2 | B,3 B, B,B,[B,D][K:treble][B,D] | [B,F][B,F][B,G][B,F] [C=E]4 | F3 F F[DF][CG][=EG] | %11
 F[FG][FA][FB] [FA]4 | [B,F]3 [B,F] [B,=E][B,F][B,G][B,E] | [B,F]4 [B,D]4 | %14
 [DF]3 [B,F][K:bass] [F,E][G,D][F,E][F,E] | [B,D]8 |] %16

